assets/icons/lib/camera.svg

<svg  class="Icon Icon-camera" width="24" height="24" viewBox="0 0 24 24" fill="none" xmlns="http://www.w3.org/2000/svg">
<path fill-rule="evenodd" clip-rule="evenodd" d="M9.54545 4C9.21945 4 8.91391 4.15891 8.72672 4.42582L7.38899 6.33333H4.63636C3.95304 6.33333 3.28814 6.5909 2.7903 7.06417C2.29073 7.53907 2 8.1943 2 8.88889V17.4444C2 18.139 2.29073 18.7943 2.7903 19.2692C3.28814 19.7424 3.95304 20 4.63636 20H19.3636C20.047 20 20.7119 19.7424 21.2097 19.2692C21.7093 18.7943 22 18.139 22 17.4444V8.88889C22 8.1943 21.7093 7.53907 21.2097 7.06417C20.7119 6.59091 20.047 6.33333 19.3636 6.33333H16.611L15.2733 4.42582C15.0861 4.15891 14.7806 4 14.4545 4H9.54545ZM8.72782 7.90751L10.0656 6H13.9344L15.2722 7.90751C15.4594 8.17442 15.7649 8.33333 16.0909 8.33333H19.3636C19.5483 8.33333 19.7158 8.40354 19.8317 8.51372C19.9459 8.62227 20 8.75836 20 8.88889V17.4444C20 17.575 19.9459 17.7111 19.8317 17.8196C19.7158 17.9298 19.5483 18 19.3636 18H4.63636C4.45171 18 4.28417 17.9298 4.16826 17.8196C4.05408 17.7111 4 17.575 4 17.4444V8.88889C4 8.75836 4.05408 8.62227 4.16826 8.51372C4.28417 8.40354 4.45171 8.33333 4.63636 8.33333H7.90909C8.2351 8.33333 8.54064 8.17442 8.72782 7.90751ZM10 13C10 11.8954 10.8954 11 12 11C13.1046 11 14 11.8954 14 13C14 14.1046 13.1046 15 12 15C10.8954 15 10 14.1046 10 13ZM12 9C9.79086 9 8 10.7909 8 13C8 15.2091 9.79086 17 12 17C14.2091 17 16 15.2091 16 13C16 10.7909 14.2091 9 12 9Z" fill="currentColor"/>
</svg>

<svg class="Icon Icon-camera" viewBox="0 0 24 24" fill="none" xmlns="http://www.w3.org/2000/svg"><path fill-rule="evenodd" clip-rule="evenodd" d="M9.545 4a1 1 0 0 0-.818.426L7.389 6.333H4.636a2.68 2.68 0 0 0-1.846.731C2.29 7.54 2 8.194 2 8.89v8.555c0 .695.29 1.35.79 1.825A2.68 2.68 0 0 0 4.636 20h14.728a2.68 2.68 0 0 0 1.846-.73c.5-.476.79-1.131.79-1.826V8.89c0-.695-.29-1.35-.79-1.825a2.68 2.68 0 0 0-1.846-.73H16.61l-1.338-1.908A1 1 0 0 0 14.454 4H9.546Zm-.817 3.908L10.066 6h3.868l1.338 1.908a1 1 0 0 0 .819.425h3.273a.68.68 0 0 1 .468.18.518.518 0 0 1 .168.376v8.555c0 .131-.054.267-.168.376a.68.68 0 0 1-.468.18H4.636a.68.68 0 0 1-.468-.18.518.518 0 0 1-.168-.376V8.89c0-.13.054-.267.168-.375a.68.68 0 0 1 .468-.18H7.91a1 1 0 0 0 .819-.426ZM10 13a2 2 0 1 1 4 0 2 2 0 0 1-4 0Zm2-4a4 4 0 1 0 0 8 4 4 0 0 0 0-8Z" fill="currentColor"/></svg>
